X:1
T: Douglas's Favourite Hornpipe
C:
R:Reel
Q: 232
K:G
M:4/4
L:1/8
|:G2 gd ed BG|G2 gd ed BG|DG BG AG BG|DG Ba cB AG|
G2 gd ed BG|G2 gd ed BG|gf gd ec AF|G2 G2 G4:|
|:B3c d2 d2|cB cd e2 e2|A3B cB cA|Gg fa g2 g2|
dB dg ec eg|fd fa gf ge|dB dg ec AF|G2 G2 G4:|
